!!!!SEGMENT: pl-sa--474-a-viii-114_brentner-johann-joseph-ignaz--tu-gloria-jerusalem.krn
!!!cenid: 17xx:559
!!!COM: Brentner, Johann Joseph Ignaz
!!!COM-rismID: pe30000477
!!!CDT: 1689/11/03-1742/06/28
!!!CNT: Czech
!!!OTL: Tu gloria Jerusalem
!!!PDT:
!!!AGN: Sacred
!!!SMS-siglum: PL-SA
!!!SMS-shelfmark: 474/A VIII 114
!!!SMS-shelfwork: W
!!!SMS-variant:
!!!SMS-altvar:
!!!NIFC-rismSourceID: 1001030106
!!!NIFC-rismChildID: 1001030106
!!!NIFC-islandoraID: none
!!!URL-pdf-islandora:
!!!URL-scan: https://bc.bdsandomierz.pl/dlibra/publication/1188/edition/1147/content @EN{Scan in the Sandomierz Diocese Digital Library} @PL{Skany w portalu Cyfrowa Biblioteka Diecezjalna w Sandomierzu}
!!!IIIF:
!!!ONB-nifc:
!!!AIN: 1 alto 1 empty 1 organ 1 tenor 2 violn 1 vox
!!!key:
**kern	**fba	**kern	**kern	**kern	**text	**kern	**text	**kern	**text	**kern	**text
*part7	*	*part6	*part5	*part4	*part4	*part3	*part3	*part2	*part2	*part1	*part1
*staff7	*	*staff6	*staff5	*staff4	*staff4	*staff3	*staff3	*staff2	*staff2	*staff1	*staff1
*Iorgan	*	*Ivioln	*Ivioln	*Iempty	*	*Itenor	*	*Ialto	*	*Ivox	*
*I"Organo.	*	*I"Violino 2do.	*I"Violino 1mo.	*I"Baſso.	*	*I"Tenore.	*	*I"Alto.	*	*I"Canto.	*
*I'org	*	*I'vl 2	*I'vl 1	*I'B	*	*I'T	*	*I'A	*	*I'S	*
*clefF4	*	*clefG2	*clefG2	*clefF4	*	*clefC4	*	*clefC3	*	*clefC1	*
*k[b-e-]	*	*k[b-e-]	*k[b-e-]	*k[b-e-]	*	*k[b-e-]	*	*k[b-e-]	*	*k[b-e-]	*
*B-:	*	*B-:	*B-:	*B-:	*	*B-:	*	*B-:	*	*B-:	*
*M2/2	*	*M2/2	*M2/2	*M2/2	*	*M2/2	*	*M2/2	*	*M2/2	*
*met(c|)	*	*met(c|)	*met(c|)	*met(c|)	*	*met(c|)	*	*met(c|)	*	*met(c|)	*
!LO:TX:a:t=P:problem=pojedyncze ósemki z laską w dół mają chorągiewki z lewej strony&colon;global	!	!LO:TX:a:t=P:problem=pojedyncze ósemki z laską w dół mają chorągiewki z lewej strony&colon;global	!LO:TX:a:t=P:problem=pojedyncze ósemki z laską w dół mają chorągiewki z lewej strony&colon;global	!	!	!LO:TX:a:t=P:problem=pojedyncze ósemki i szesnastki z laską w dół mają chorągiewki z lewej strony&colon;global	!	!	!	!LO:TX:a:t=P:problem=pojedyncze ósemki i szesnastki z laską w dół mają chorągiewki z lewej strony&colon;global	!
!LO:TX:b:i:t=Tu Gloria Ierusalem.	!	!LO:TX:b:i:t=Tu Gloria Ierusalem.	!LO:TX:b:i:t=Tu gloria Ieruſalem.	!LO:TX:a:t=P:problem=pojedyncze ósemki i szesnastki z laską w dół mają chorągiewki z lewej strony&colon;global	!	!	!	!LO:TX:a:t=P:problem=pojedyncze ósemki i szesnastki z laską w dół mają chorągiewki z lewej strony&colon;global	!	!LO:TX:a:t=P:problem=kolejność bemoli&colon; b-, ee-	!
!LO:TX:a:i:t=Lente.	!	!LO:TX:i:a:t=Lente.	!LO:TX:i:a:t=Lente.	!LO:TX:i:a:t=Lente.	!	!LO:TX:i:a:t=Lente.	!	!LO:TX:a:i:t=Lente.	!	!LO:TX:i:a:t=Lente.	!
8BB-/	.	8dd\	8b-/	8r	.	8r	.	8r	.	8r	.
=1	=1	=1	=1	=1	=1	=1	=1	=1	=1	=1	=1
*	*	*	*	*2\right	*	*2\right	*	*2\right	*	*2\right	*
!	!	!	!	!	!	!	!	!	!	!LO:N:vis=0	!
4BB-/	.	8dd\L	8ff\L	00r	.	00r	.	00r	.	0r	.
.	.	16cc\L	16ee-\L	.	.	.	.	.	.	.	.
.	.	16dd\JJ	16ff\JJ	.	.	.	.	.	.	.	.
4E-/	.	8ee-\L	8gg\L	.	.	.	.	.	.	.	.
.	.	16dd\L	16ff\L	.	.	.	.	.	.	.	.
.	.	16cc\JJ	16ee-\JJ	.	.	.	.	.	.	.	.
4BB-/	.	4dd\	8ff\L	.	.	.	.	.	.	.	.
.	.	.	16b-\L	.	.	.	.	.	.	.	.
.	.	.	16a\JJ	.	.	.	.	.	.	.	.
8r	.	8r	8b-/L	.	.	.	.	.	.	.	.
8F\	.	8a/	8cc/J	.	.	.	.	.	.	.	.
=2	=2	=2	=2	=2	=2	=2	=2	=2	=2	=2	=2
8BB-/L	.	8b-/L	8dd\L	.	.	.	.	.	.	.	.
8D/J	.	16a/L	16cc\L	.	.	.	.	.	.	.	.
.	.	16b-/JJ	16dd\JJ	.	.	.	.	.	.	.	.
8C/L	.	8cc/L	8ee-\L	.	.	.	.	.	.	.	.
16D/L	.	8b-/J	8dd\J	.	.	.	.	.	.	.	.
16E-/JJ	.	.	.	.	.	.	.	.	.	.	.
8F\L	.	8a/L	4cc\	.	.	.	.	.	.	.	.
8F\	.	8a/J	.	.	.	.	.	.	.	.	.
8F\	.	8a/L	8r	.	.	.	.	.	.	.	.
8E-\J	.	16g/L	8cc\	.	.	.	.	.	.	.	.
.	.	16a/JJ	.	.	.	.	.	.	.	.	.
=3	=3	=3	=3	=3	=3	=3	=3	=3	=3	=3	=3
4D/	.	8b-\L	16ff\LL	.	.	.	.	.	.	1r	.
.	.	.	16ee-\	.	.	.	.	.	.	.	.
.	.	8ff\J	16dd\	.	.	.	.	.	.	.	.
.	.	.	16cc\JJ	.	.	.	.	.	.	.	.
8r	.	8r	16b-/LL	.	.	.	.	.	.	.	.
.	.	.	16a/	.	.	.	.	.	.	.	.
8D/	.	8b-\L	16g/	.	.	.	.	.	.	.	.
.	.	.	16f/JJ	.	.	.	.	.	.	.	.
!	!	!	!LO:TX:a:t=P:problem=mixed beam	!	!	!	!	!	!	!	!
8E-\L	.	8b-\	8g/L	.	.	.	.	.	.	.	.
8E-\J	.	8ee-\J	8gg\J	.	.	.	.	.	.	.	.
*	*	*	*custos:ff	*	*	*	*	*	*	*	*
!	!	!LO:LB:g=original	!LO:LB:g=original	!	!	!	!	!	!	!	!
8F\L	.	8a/L	8.ff\L	.	.	.	.	.	.	.	.
16G\L	.	16b-/L	.	.	.	.	.	.	.	.	.
16A\JJ	.	16cc/JJ	16ee-\Jk	.	.	.	.	.	.	.	.
!LO:LB:g=original	!	!	!	!	!	!	!	!	!	!	!
=4	=4	=4	=4	=4	=4	=4	=4	=4	=4	=4	=4
8B-\L	.	8f/L	8dd\L	.	.	.	.	.	.	2r	.
8G\	.	8g/	16cc\L	.	.	.	.	.	.	.	.
.	.	.	16b-\JJ	.	.	.	.	.	.	.	.
8E-\	.	8f/	8cc/L	.	.	.	.	.	.	.	.
8F\J	.	8e-/J	8a/J	.	.	.	.	.	.	.	.
4BB-/	.	4d/	4b-/	.	.	.	.	.	.	4r	.
4r	.	4r	4r	.	.	.	.	.	.	8r	.
.	.	.	.	.	.	.	.	.	.	8b-\	Tu
=5	=5	=5	=5	=5	=5	=5	=5	=5	=5	=5	=5
!	!	!LO:TX:a:t=1	!LO:TX:a:t=1	!	!	!	!	!	!	!	!
4BB-/	.	1r;>	1r	00r	.	00r	.	00r	.	8ff\	Glo-
.	.	.	.	.	.	.	.	.	.	(>16ee-\LL	-ri-
.	.	.	.	.	.	.	.	.	.	16ff\JJ)	.
!	!	!	!	!	!	!	!	!	!	!LO:TX:a:t=P:problem=oddechy/cezury wpisane zazwyczaj na najniższej linii; cezury zapisane nad pięciolinią inną ręką oznaczam notatką "problem&colon;cezura u góry"	!
4E-/	.	.	.	.	.	.	.	.	.	8gg,<\	-a
.	.	.	.	.	.	.	.	.	.	(>16ff\LL	Ie-
!	!	!	!	!	!	!	!	!	!	!LO:TX:a:t=P:problem=cezura u góry	!
.	.	.	.	.	.	.	.	.	.	16ee-,\JJ)	.
4BB-/	.	.	.	.	.	.	.	.	.	8ff\	-ru-
.	.	.	.	.	.	.	.	.	.	(>16b-\LL	-sa-
.	.	.	.	.	.	.	.	.	.	16a\JJ)	.
8r	.	.	.	.	.	.	.	.	.	8b-,<\	-lem
8A\	.	.	.	.	.	.	.	.	.	8cc\	lae-
=6	=6	=6	=6	=6	=6	=6	=6	=6	=6	=6	=6
8B-\L	.	2r	2r	.	.	.	.	.	.	8dd\	-ti-
16A\L	.	.	.	.	.	.	.	.	.	16cc\	-ti-
16B-\JJ	.	.	.	.	.	.	.	.	.	16dd\	-a
!	!	!	!	!	!	!	!	!	!	!LO:LB:g=original	!
8c\L	.	.	.	.	.	.	.	.	.	8ee-\	Is-
8B-\J	.	.	.	.	.	.	.	.	.	(>16dd\LL	-ra-
!	!	!	!	!	!	!	!	!	!	!LO:TX:a:t=P:problem=cezura u góry	!
.	.	.	.	.	.	.	.	.	.	16cc,\JJ)	.
8F\L	.	8r	4r	.	.	.	.	.	.	4cc\	-el
8F\	.	8cc\	.	.	.	.	.	.	.	.	.
8F\	.	8cc\L	8r	.	.	.	.	.	.	4r	.
8E-\J	X 6	16b-\L	8cc\	.	.	.	.	.	.	.	.
.	.	16cc\JJ	.	.	.	.	.	.	.	.	.
=7	=7	=7	=7	=7	=7	=7	=7	=7	=7	=7	=7
4D/	.	8b-\L	16ff\LL	.	.	.	.	.	.	1r	.
.	.	.	16ee-\	.	.	.	.	.	.	.	.
.	.	8ff\J	16dd\	.	.	.	.	.	.	.	.
.	.	.	16cc\JJ	.	.	.	.	.	.	.	.
8r	.	8r	16b-/LL	.	.	.	.	.	.	.	.
.	.	.	16a/	.	.	.	.	.	.	.	.
8D/	.	8b-\L	16g/	.	.	.	.	.	.	.	.
.	.	.	16f/JJ	.	.	.	.	.	.	.	.
!	!	!	!LO:TX:a:t=P:problem=mixed beam	!	!	!	!	!	!	!	!
8E-\L	.	8b-\	8g/L	.	.	.	.	.	.	.	.
8E-\J	.	8ee-\J	8gg\J	.	.	.	.	.	.	.	.
*custos:F	*	*	*	*	*	*	*	*	*	*	*
!LO:LB:g=original	!	!	!	!	!	!	!	!	!	!	!
8F\L	.	8a/L	8.ff\L	.	.	.	.	.	.	.	.
16G\L	.	16b-/L	.	.	.	.	.	.	.	.	.
16A\JJ	.	16cc/JJ	16ee-\Jk	.	.	.	.	.	.	.	.
=8	=8	=8	=8	=8	=8	=8	=8	=8	=8	=8	=8
8B-\L	.	8f/L	8dd\L	.	.	.	.	.	.	2r	.
8G\	.	8g/	16cc\L	.	.	.	.	.	.	.	.
.	.	.	16b-\JJ	.	.	.	.	.	.	.	.
*	*	*	*custos:cc	*	*	*	*	*	*	*	*
!	!	!	!LO:LB:g=original	!	!	!	!	!	!	!	!
8E-\	.	8g/	8cc/L	.	.	.	.	.	.	.	.
8F\J	.	8f/J	8a/J	.	.	.	.	.	.	.	.
4BB-/	.	4d/	4b-/	.	.	.	.	.	.	4r	.
4r	.	8r	8r	.	.	.	.	.	.	8r	.
.	.	8b-/	8dd\	.	.	.	.	.	.	8b-\	Tu
!	!	!LO:LB:g=original	!	!	!	!	!	!	!	!	!
=9	=9	=9	=9	=9	=9	=9	=9	=9	=9	=9	=9
!LO:TX:a:t=1:P:problem=(z daszkiem)	!	!	!	!	!	!	!	!	!	!	!
1r	.	4b-/	8dd\L	00rG	.	00rc	.	00re	.	8ff\	Glo-
.	.	.	16cc\L	.	.	.	.	.	.	(>16ee-\LL	-ri-
.	.	.	16dd\JJ	.	.	.	.	.	.	16ff\JJ)	.
.	.	4e-/	8ee-\L	.	.	.	.	.	.	8gg,<\	-a
.	.	.	16dd\L	.	.	.	.	.	.	(>16ff\LL	Ie-
!	!	!	!	!	!	!	!	!	!	!LO:TX:a:t=P:problem=cezura u góry	!
.	.	.	16cc\JJ	.	.	.	.	.	.	16ee-,\JJ)	.
.	.	4b-/	4dd\	.	.	.	.	.	.	8ff\	-ru-
.	.	.	.	.	.	.	.	.	.	(>16b-\LL	-sa-
.	.	.	.	.	.	.	.	.	.	16a\JJ)	.
.	.	8r	8r	.	.	.	.	.	.	8b-,<\	-lem
.	.	8f/	8a/	.	.	.	.	.	.	8cc\	lae-
!	!	!	!	!	!	!	!	!	!	!LO:LB:g=original	!
=10	=10	=10	=10	=10	=10	=10	=10	=10	=10	=10	=10
2r	.	8b-/L	8b-/L	.	.	.	.	.	.	8dd\	-ti-
.	.	16a/L	16a/L	.	.	.	.	.	.	16cc\	-ti-
.	.	16b-/JJ	16b-/JJ	.	.	.	.	.	.	16dd,<\	-a
.	.	8cc/L	8cc/L	.	.	.	.	.	.	8ee-\	Is-
.	.	8b-/J	8b-/J	.	.	.	.	.	.	(>16dd\LL	-ra-
!	!	!	!	!	!	!	!	!	!	!LO:TX:a:t=P:problem=cezura u góry	!
.	.	.	.	.	.	.	.	.	.	16cc,\JJ)	.
8r	.	4f/	4a/	.	.	.	.	.	.	4cc\	-el
8F\L	.	.	.	.	.	.	.	.	.	.	.
8F\	.	4r	4r	.	.	.	.	.	.	8r	.
8E-\J	.	.	.	.	.	.	.	.	.	8cc\	tu
=11	=11	=11	=11	=11	=11	=11	=11	=11	=11	=11	=11
4D/	X 6	8r	8r	.	.	.	.	.	.	(>16ff\LL	ho-
.	.	.	.	.	.	.	.	.	.	16ee-\JJ)	.
.	.	8d/L	16ff\LL	.	.	.	.	.	.	(>16dd\LL	-no-
.	.	.	16ee-\JJ	.	.	.	.	.	.	16cc\JJ)	.
8r	.	8d/	16dd\LL	.	.	.	.	.	.	(>16b-\LL	-ri-
.	.	.	16cc\	.	.	.	.	.	.	16a\JJ)	.
8D/	.	8d/J	16b-\	.	.	.	.	.	.	(<16g/LL	-fi-
!	!	!	!	!	!	!	!	!	!	!LO:TX:a:t=P:problem=cezura u góry	!
.	.	.	16a\JJ	.	.	.	.	.	.	16f,/JJ)	.
4E-/	.	2rg	4g/	.	.	.	.	.	.	8.g/	-cen-
.	.	.	.	.	.	.	.	.	.	16a\	-ti-
8r	.	.	4r	.	.	.	.	.	.	8b-,<\	-a
8D/	.	.	.	.	.	.	.	.	.	8b-\	tu
!	!	!	!LO:LB:g=original	!	!	!	!	!	!	!LO:LB:g=original	!
=12	=12	=12	=12	=12	=12	=12	=12	=12	=12	=12	=12
4E-\	.	8r	8r	.	.	.	.	.	.	(>16gg\LL	ho-
.	.	.	.	.	.	.	.	.	.	16ff\JJ)	.
.	.	8e-/L	16gg\LL	.	.	.	.	.	.	(>16ee-\LL	-no-
.	.	.	16ff\JJ	.	.	.	.	.	.	16dd\JJ)	.
8r	.	8e-/	16ee-\LL	.	.	.	.	.	.	(>16cc\LL	-ri-
.	.	.	16dd\	.	.	.	.	.	.	16b-\JJ)	.
8E-\	.	8e-/J	16cc\	.	.	.	.	.	.	(>16a\LL	-fi-
!	!	!	!	!	!	!	!	!	!	!LO:TX:a:t=P:problem=cezura u góry	!
.	.	.	16b-\JJ	.	.	.	.	.	.	16g,\JJ)	.
!LO:LB:g=original	!	!	!	!	!	!	!	!	!	!	!
4F\	.	2rg	4a/	.	.	.	.	.	.	8.a\	-cen-
.	.	.	.	.	.	.	.	.	.	16b-\	-ti-
8r	.	.	4r	.	.	.	.	.	.	8cc,<\	-a
8F\	.	.	.	.	.	.	.	.	.	8cc\	tu
=13	=13	=13	=13	=13	=13	=13	=13	=13	=13	=13	=13
4BB-/	.	1r	1r	1r	.	1r	.	1r	.	8dd\	ho-
.	.	.	.	.	.	.	.	.	.	(>16cc\LL	-no-
.	.	.	.	.	.	.	.	.	.	16dd\JJ)	.
4C/	X n	.	.	.	.	.	.	.	.	8een\	-ri-
.	.	.	.	.	.	.	.	.	.	(>16dd\LL	-fi-
!	!	!	!	!	!	!	!	!	!	!LO:TX:a:t=P:problem=cezura u góry	!
.	.	.	.	.	.	.	.	.	.	16ee,\JJ)	.
8D/L	.	.	.	.	.	.	.	.	.	8ff\	-cen-
16C/L	.	.	.	.	.	.	.	.	.	16een\	-ti-
16BB-/JJ	.	.	.	.	.	.	.	.	.	16dd\	-a
*	*	*	*	*	*	*	*	*	*	*custos:cc	*
!	!	!	!	!	!	!	!	!	!	!LO:LB:g=original	!
8AA/L	.	.	.	.	.	.	.	.	.	8cc\	po-
8FF/J	.	.	.	.	.	.	.	.	.	16b-\	-pu-
.	.	.	.	.	.	.	.	.	.	16a\	-li
=14	=14	=14	=14	=14	=14	=14	=14	=14	=14	=14	=14
8GG/L	.	2r	2r	2r	.	2r	.	2r	.	8b-\	po-
16AA/L	.	.	.	.	.	.	.	.	.	16cc\	-pu-
16BB-/JJ	.	.	.	.	.	.	.	.	.	16dd\	-li
!	!	!	!	!	!	!	!	!	!	!LO:TX:a:t=P:problem=cezura u góry	!
8C/L	.	.	.	.	.	.	.	.	.	4g,/	tu-
8CC/J	.	.	.	.	.	.	.	.	.	.	.
4FF/	.	4r	4r	4r	.	4r	.	4r	.	4f/	-i
8r	.	8r	8r	8r	.	8r	.	8r	.	8r	.
8B-\	.	8dd\	8bb-\	8B-\	Tu	8d\	Tu	8b-\	Tu	8b-\	tu
!	!	!LO:LB:g=original	!	!	!	!	!	!	!	!	!
=15	=15	=15	=15	=15	=15	=15	=15	=15	=15	=15	=15
8.B-\L	.	8ff\L	8.bb-\	8.B-\	glo-	8d\	glo-	8.b-\	glo-	8ff\	Glo-
.	.	16ee-\L	.	.	.	(>16c\LL	-ri-	.	.	(>16ee-\LL	-ri-
16B-\Jk	.	16ff\JJ	16bb-\	16B-\	-ri-	16d\JJ)	.	16b-\	-ri-	16ff\JJ)	.
!	!	!	!	!LO:TX:a:t=P:problem=cezury zapisane na najniższej linii&colon;global	!	!LO:TX:a:t=P:global:problem=cezury zapisane na najniższej linii	!	!LO:TX:a:t=P:problem=cezury zapisane na najniższej linii&colon;global	!	!	!
8E-\L	.	8gg\L	8bb-\	8E-,\	-a	8e-,\	-a	8b-,\	-a	8gg,<\	-a
8E-\J	.	16ff\L	8bb-\	8E-\	ie-	(>16d\LL	Ie-	8b-\	Ie-	(>16ff\LL	Ie-
!	!	!	!	!	!	!	!	!	!	!LO:TX:a:t=P:problem=cezura u góry	!
.	.	16ee-\JJ	.	.	.	16c\JJ)	.	.	.	16ee-,\JJ)	.
4B-\	.	8ff\L	8.bb-\L	8.B-\	-ru-	8.d\	-ru-	8.b-\	-ru-	8ff\	-ru-
.	.	16b-\L	.	.	.	.	.	.	.	(>16b-\LL	-sa-
.	.	16a\JJ	16bb-\Jk	16B-\	-sa-	16d\	-sa-	16b-\	-sa-	16a\JJ)	.
*	*	*	*	*	*	*	*	*	*	*custos:b	*
!LO:LB:g=original	!	!	!	!	!	!	!	!	!	!LO:LB:g=original	!
8r	.	8b-\L	8bb-\L	8B-,\	-lem	8d,\	-lem	8b-,\	-lem	8b-,<\	-lem
8F\	.	8cc\J	16aa\L	8F\	lae-	8c\	lae-	(>16a\LL	lae-	8cc\	lae-
.	.	.	16gg\JJ	.	.	.	.	16g\JJ)	.	.	.
*	*	*	*custos:ff	*	*	*	*	*	*	*	*
!	!	!	!LO:LB:g=original	!LO:LB:g=original	!	!LO:LB:g=original	!	!LO:LB:g=original	!	!	!
=16	=16	=16	=16	=16	=16	=16	=16	=16	=16	=16	=16
8B-\L	.	8dd\L	8ff\L	8B-\	-ti-	8c\	-ti-	8f\	-ti-	8dd\	-ti-
16A\L	.	16cc\L	8ff\	16A\	-ti-	16F/	-ti-	16f\	-ti-	16cc\	-ti-
16B-\JJ	.	16dd\JJ	.	16B-,\	-a	16B-,/	-a	16f,\	-a	16dd,<\	-a
8c\L	.	8ee-\L	8ee-\	8c\	Is-	8G/	Is-	8e-\	Is-	8ee-\	Is-
!	!	!	!	!	!	!	!	!	!	!LO:TX:a:t=P:problem=cezura u góry	!
8B-\J	.	8dd\J	8ff\J	8B-\	-ra-	8B-\	-ra-	8f\	-ra-	8dd,\	-ra-
4F\	.	8cc\L	4ff\	4F\	-el	4A/	-el	4f\	-el	8cc,<\	-el
.	.	8cc\J	.	.	.	.	.	.	.	8cc\	tu
8r	.	4ff\	8r	8r	.	8r	.	8r	.	4ff\	tu
8F\	.	.	8ff\	8F\	tu	8c\	tu	8a\	tu	.	.
=17	=17	=17	=17	=17	=17	=17	=17	=17	=17	=17	=17
!	!	!LO:SIC:o=8r	!	!	!	!	!	!	!	!	!
4B-\	.	4r	4ff\	4B-\	tu	4d\	tu	4f\	tu	8r	.
.	.	.	.	.	.	.	.	.	.	8dd\	tu
!	!	!	!	!	!	!	!	!	!	!LO:TX:a:t=P:problem=cezura u góry	!
8r	.	8dd\L	8r	8r	.	8r	.	8r	.	4gg,\	tu
8G\	.	8gg\J	8gg\	8G\	tu	8d\	tu	8b-,\	tu	.	.
*	*	*	*	*	*	*	*	*	*ij	*	*
4c\	.	8r	4gg\	4c\	tu	4en\	tu	4g\	tu	8r	.
*	*	*	*	*	*	*	*	*	*Xij	*	*
.	.	8cc\L	.	.	.	.	.	.	.	8cc\	tu
8r	.	8ff\	8r	8r	.	8r	.	8r	.	4ff\	tu
8A\	.	8cc\J	8ff\	8A\	tu	8c\	tu	8a\	tu	.	.
!	!	!LO:LB:g=original	!	!	!	!	!	!	!	!	!
=18	=18	=18	=18	=18	=18	=18	=18	=18	=18	=18	=18
!	!	!	!	!	!	!	!	!	!	!LO:TX:a:t=1	!
8B-\L	.	8dd\L	8ff\L	8B-\	ho-	8d\	ho-	8f\	tu	1r	.
16A\L	.	16cc\L	8ff\	(>16A\LL	-no-	(>16c\LL	-no-	16f\	ho-	.	.
16G\JJ	.	16b-\JJ	.	16G\JJ)	.	16B-\JJ)	.	16f\	-no-	.	.
*	*	*	*	*	*	*	*	*custos:f	*	*	*
!	!	!	!	!	!	!LO:LB:g=original	!	!LO:LB:g=original	!	!	!
8A\L	.	8cc\L	8ff\	8A\	-ri-	8c\	-ri-	8f\	-ri-	.	.
*	*	*	*	*custos:G	*	*	*	*	*	*	*
!	!	!	!	!LO:LB:g=original	!	!	!	!	!	!	!
16G\L	.	8ff\J	8ff\J	(>16G\LL	-fi-	(>16B-\LL	-fi-	8d\	-fi-	.	.
16F\JJ	.	.	.	16F\JJ)	.	16A\JJ)	.	.	.	.	.
8G\L	.	8b-\L	8dd\L	8G\	-cen-	8B-\	-cen-	8d/	-cen-	.	.
16F\L	.	8een\J	8cc\	16F\	-ti-	16A/	-ti-	16d/	-ti-	.	.
16En\JJ	.	.	.	16E-\	-a	16G,/	-a	16c,/	-a	.	.
*custos:F	*	*	*	*	*	*	*	*	*	*	*
!LO:LB:g=original	!	!	!	!	!	!	!	!	!	!	!
8F\L	.	8a/L	8dd\	8F\	po-	8A/	po-	8c/	po-	.	.
!	!	!	!LO:SIC:s=8dd	!	!	!	!	!	!	!	!
16En\L	.	8b-/J	8ee-\J	16E-/	-pu-	16B-\	-pu-	16c/	-pu-	.	.
16D\JJ	.	.	.	16D/	-li	16B-\	-li	16c/	-li	.	.
!	!	!	!	!	!	!	!	!	!	!LO:LB:g=original	!
=19	=19	=19	=19	=19	=19	=19	=19	=19	=19	=19	=19
1C	5 3n	8cc/L	4.een\	8C/	tu-	8G/	tu-	8en\	tu-	8cc\	ho-
.	6 4	16b-/L	.	8C/	-i	8G/	-i	8e\	-i	(>16b-\LL	-no-
.	X 3	16a/JJ	.	.	.	.	.	.	.	16a\JJ)	.
.	.	8b-/L	.	4r	.	4r	.	4r	.	8b-\	-ri-
.	.	16a/L	8r	.	.	.	.	.	.	(>16a\LL	-fi-
!	!	!	!	!	!	!	!	!	!	!LO:TX:a:t=P:problem=cezura u góry	!
.	.	16g/JJ	.	.	.	.	.	.	.	16g,\JJ)	.
.	.	8a/L	8cc\L	2r	.	8c\	po-	2rB	.	8a\	-cen-
.	.	16g/L	16b-\L	.	.	16B-\	-pu-	.	.	16g/	-ti-
.	.	16f/JJ	16a\JJ	.	.	16A/	-li	.	.	16f,</	-a
*	*	*	*	*	*	*custos:B	*	*	*	*	*
!	!	!	!	!	!	!LO:LB:g=original	!	!	!	!	!
.	.	8g/L	8b-/L	.	.	8B-/	po-	.	.	8g/	po-
.	.	16f/L	16a/L	.	.	16A/	-pu-	.	.	16f/	-pu-
.	.	16en/JJ	16g/JJ	.	.	16G/	-li	.	.	16e-/	-li
!	!	!	!LO:LB:g=original	!	!	!	!	!	!	!	!
=20	=20	=20	=20	=20	=20	=20	=20	=20	=20	=20	=20
!LO:TX:a:t=P:problem=mixed beam	!	!	!	!	!	!	!	!	!	!	!
8F\L	.	8f/L	8a/L	8F\	po-	(<8A/L	tu-	8f\	po-	8f/	po-
8BB-/J	.	8g/J	8dd/J	16BB-/	-pu-	8B-/J)	.	16d\	-pu-	16g/	-pu-
.	.	.	.	16BB-/	-li	.	.	16d\	-li	16a/	-li
!	!	!	!	!	!	!	!	!LO:LB:g=original	!	!LO:TX:a:t=P:problem=cezura u góry	!
4C/	.	4g/	4cc\	4C/	tu-	4G/	.	4c/	tu-	4en,/	tu-
!LO:TX:a:t=P:problem=mixed beam	!	!	!	!	!	!	!	!	!	!	!
8FF/L	.	8a/L	4cc\	4FF/	-i	4A/	-i	4c/	-i	4f/	-i
8F\J	.	8a/J	.	.	.	.	.	.	.	.	.
8F\L	.	8a/L	8r	4r	.	4r	.	4r	.	4r	.
8E-\J	.	16g/L	8cc\	.	.	.	.	.	.	.	.
.	.	16a/JJ	.	.	.	.	.	.	.	.	.
!	!	!	!	!LO:LB:g=original	!	!	!	!	!	!LO:LB:g=original	!
=21	=21	=21	=21	=21	=21	=21	=21	=21	=21	=21	=21
!	!	!	!	!LO:TX:a:t=1	!	!	!	!	!	!LO:TX:a:t=1	!
4D/	.	8b-\L	16ff\LL	1r	.	1r	.	1r	.	1r	.
.	.	.	16ee-\	.	.	.	.	.	.	.	.
.	.	8ff\J	16dd\	.	.	.	.	.	.	.	.
.	.	.	16cc\JJ	.	.	.	.	.	.	.	.
8r	.	8r	16b-/LL	.	.	.	.	.	.	.	.
.	.	.	16a/	.	.	.	.	.	.	.	.
8D/	.	8b-/	16g/	.	.	.	.	.	.	.	.
.	.	.	16f/JJ	.	.	.	.	.	.	.	.
!	!	!LO:LB:g=original	!	!	!	!	!	!	!	!	!
4E-/	.	8b-/L	8g/L	.	.	.	.	.	.	.	.
.	.	16e-/L	8a/	.	.	.	.	.	.	.	.
.	.	16f/JJ	.	.	.	.	.	.	.	.	.
!	!	!LO:TX:a:t=P:problem=mixed beam	!	!	!	!	!	!	!	!	!
8r	.	8g/L	8b-/	.	.	.	.	.	.	.	.
8D/	.	8ff\J	8cc/J	.	.	.	.	.	.	.	.
=22	=22	=22	=22	=22	=22	=22	=22	=22	=22	=22	=22
!	!	!LO:SIC:s=8ee-	!	!	!	!	!	!	!	!	!
4E-/	.	8dd\L	16gg\LL	2rBB	.	2r	.	2r	.	2r	.
.	.	.	16ff\	.	.	.	.	.	.	.	.
.	.	16gg\L	16ee-\	.	.	.	.	.	.	.	.
.	.	16ff\JJ	16dd\JJ	.	.	.	.	.	.	.	.
8C/L	.	16gg\LL	16ee-\LL	.	.	.	.	.	.	.	.
.	.	16ff\	16dd\	.	.	.	.	.	.	.	.
8E-/J	.	16ee-\	16cc\	.	.	.	.	.	.	.	.
.	.	16dd\JJ	16b-\JJ	.	.	.	.	.	.	.	.
!LO:LB:g=original	!	!	!	!	!	!	!	!	!	!	!
4F\	.	8cc/L	8a/L	4r	.	4r	.	4r	.	4r	.
.	.	8a/J	8f/J	.	.	.	.	.	.	.	.
8r	.	8r	8r	8r	.	8r	.	8r	.	8r	.
8F\	.	8cc\	8aa\	8F\	tu	8c\	tu	8a\	tu	8cc\	tu
*	*	*	*custos:bb	*	*	*	*	*	*	*	*
!	!	!	!LO:LB:g=original	!	!	!	!	!	!	!	!
=23	=23	=23	=23	=23	=23	=23	=23	=23	=23	=23	=23
8D/L	.	16ff\LL	8bb-\L	8.D/	ho-	8d\	ho-	8.b-\	ho-	(>16ff\LL	ho-
.	.	16ee-\	.	.	.	.	.	.	.	16ee-\JJ)	.
8D/	X 6	16dd\	8ff\J	.	.	(>16f\LL	-no-	.	.	(>16dd\LL	-no-
.	.	16cc\JJ	.	16D/	-no-	16e-\JJ)	.	16f\	-no-	16cc\JJ)	.
8D/	.	16b-/LL	8ff\L	8D/	-ri-	8d\	-ri-	8f\	-ri-	(>16b-\LL	-ri-
.	.	16a/	.	.	.	.	.	.	.	16a\JJ)	.
8D/J	.	16g/	8ff\J	8D/	-fi-	8B-\	-fi-	8f\	-fi-	(<16g/LL	-fi-
!	!	!	!	!	!	!	!	!	!	!LO:TX:a:t=P:problem=cezura u góry	!
.	.	16f/JJ	.	.	.	.	.	.	.	16f,/JJ)	.
*	*	*	*	*	*	*custos:B	*	*	*	*	*
!	!	!	!	!	!	!LO:LB:g=original	!	!	!	!	!
4E-\	.	8g/L	8.ee-\L	8.E-\	-cen-	8.B-/	-cen-	8.e-\	-cen-	8.g/	-cen-
.	.	8a/J	.	.	.	.	.	.	.	.	.
.	.	.	16ff\Jk	16E-\	-ti-	16A/	-ti-	16f\	-ti-	16a\	-ti-
8r	.	8.b-/L	8gg\L	8E-,/	-a	8G,/	-a	8g,\	-a	8b-,<\	-a
8D/	.	.	8ff\J	8D/	tu	8B-\	tu	8f\	tu	8b-\	tu
.	.	16b-/Jk	.	.	.	.	.	.	.	.	.
!	!	!	!	!	!	!	!	!LO:LB:g=original	!	!	!
=24	=24	=24	=24	=24	=24	=24	=24	=24	=24	=24	=24
8E-\L	.	16gg\LL	8gg\L	8.E-\	ho-	8e-\	ho-	8.g\	ho-	(>16gg\LL	ho-
.	.	16ff\	.	.	.	.	.	.	.	16ff\JJ)	.
8E-\	X 6	16ee-\	8gg\	.	.	(>16g\LL	-no-	.	.	(>16ee-\LL	-no-
.	.	16dd\JJ	.	16E-\	-no-	16f\JJ)	.	16g\	-no-	16dd\JJ)	.
*	*	*custos:cc	*	*custos:E	*	*	*	*	*	*custos:cc	*
!	!	!LO:LB:g=original	!	!LO:LB:g=original	!	!	!	!	!	!LO:LB:g=original	!
!	!	!	!	!	!	!	!	!	!	!LO:TX:a:t=P:problem=niejednoznaczny zapis łuków w tym takcie	!
8E-\	.	16cc/LL	8gg\	8E-\	-ri-	8e-\	-ri-	8g\	-ri-	(>16cc\LL	-ri-
.	.	16b-/	.	.	.	.	.	.	.	16b-\JJ	.
8E-\J	.	16a/	8gg\J	8E-\	-fi-	8c\	-fi-	8g\	-fi-	16a\LL)	-fi-
!	!	!	!	!	!	!	!	!	!	!LO:TX:a:t=P:problem=cezura u góry	!
.	.	16g/JJ	.	.	.	.	.	.	.	(>16g,\JJ	.
4F\	.	8.a/L	8.ff\L	8.F\	-cen-	8.c\	-cen-	8.f\	-cen-	8.a\)	-cen-
.	.	16b-/Jk	16ff\K	16F\	-ti-	16B-\	-ti-	16f\	-ti-	16b-\	-ti-
8r	.	8cc\L	8ff\	8F,\	-a	8A,/	-a	8f,\	-a	8cc,<\	-a
8F\	.	8cc\J	8ff\J	8F\	tu	8A/	tu	8f\	tu	8cc\	tu
=25	=25	=25	=25	=25	=25	=25	=25	=25	=25	=25	=25
8B-\L	.	8dd\L	8ff\L	8.B-\	ho-	8F/	ho-	8.f\	ho-	8dd\	ho-
8A\J	.	8cc\	8ff\	.	.	8A/	-no-	.	.	8cc\	-no-
.	.	.	.	16A\	-no-	.	.	16f\	-no-	.	.
!	!	!	!	!	!	!LO:LB:g=original	!	!	!	!	!
8B-\L	.	8dd\	8ff\	8B-\	-ri-	8F/	-ri-	8f\	-ri-	8dd\	-ri-
!	!	!	!	!	!	!	!	!	!	!LO:TX:a:t=P:problem=cezura u góry	!
8F\J	.	8ff\J	8ff\J	8F\	-fi-	8A/	-fi-	8f\	-fi-	8ff,\	-fi-
*custos:B	*	*	*	*	*	*	*	*custos:f	*	*	*
!LO:LB:g=original	!	!	!	!	!	!	!	!LO:LB:g=original	!	!	!
8B-\L	.	8dd\L	8ff\L	8B-\	-cen-	8F/	-cen-	8f\	-cen-	8dd\	-cen-
16A\L	.	16cc\L	16gg\L	16A\	-ti-	16A/	-ti-	16f\	-ti-	16cc\	-ti-
16G\JJ	.	16b-\JJ	16aa\JJ	16G\	-a	16B-,\	-a	16g,\	-a	16b-\	-a
*	*	*	*	*custos:F	*	*	*	*	*	*custos:a	*
!	!	!	!	!LO:LB:g=original	!	!	!	!	!	!LO:LB:g=original	!
8F\L	.	8a/L	8aa\L	8F\	po-	8c\	po-	8a\	po-	8a\	po-
8D\J	.	8b-/J	16gg\L	16D/	-pu-	16d\	-pu-	16f\	-pu-	16b-\	-pu-
.	.	.	16ff\JJ	16D/	-li	16d\	-li	16f\	-li	16b-\	-li
=26	=26	=26	=26	=26	=26	=26	=26	=26	=26	=26	=26
8G\L	.	8b-/L	8gg\L	8.G\	ho-	8.B-\	ho-	8.g\	ho-	8b-\	ho-
8F\	.	8a/	8dd\	.	.	.	.	.	.	8a\	-no-
.	.	.	.	16F\	-no-	16d\	-no-	16d\	-no-	.	.
8G\	.	8b-/	8dd\	8G\	-ri-	8B-\	-ri-	8e-\	-ri-	8b-\	-ri-
!	!	!	!	!	!	!	!	!	!	!LO:TX:a:t=P:problem=cezura u góry	!
8D\J	.	8dd/J	8ff\J	8D/	-fi-	8A/	-fi-	8f\	-fi-	8dd,\	-fi-
*	*	*	*custos:dd	*	*	*	*	*	*	*	*
!	!	!	!LO:LB:g=original	!	!	!	!	!	!	!	!
8G\L	.	8b-/L	8dd\L	8G\	-cen-	8B-\	-cen-	8d\	-cen-	8b-\	-cen-
16F\L	.	16a/L	16dd\L	16F\	-ti-	16c\	-ti-	16d\	-ti-	16a\	-ti-
16E-\JJ	.	16g/JJ	16ee-\JJ	16E-,\	-a	16c\	-a	16e-\	-a	16g,</	-a
*	*	*	*	*	*	*	*	*custos:f	*	*	*
!	!	!	!	!	!	!LO:LB:g=original	!	!LO:LB:g=original	!	!	!
8D/L	.	8f/L	8ff\L	8D/	po-	8d\	po-	8f\	po-	8f/	po-
8BB-/J	.	8b-/J	16ff\L	16C/	-pu-	16d\	-pu-	16f\	-pu-	16b-\	-pu-
.	.	.	16ff\JJ	16BB-/	-li.	16d,\	-li	16f\	-li	16b-\	-li
!	!	!	!	!LO:LB:g=original	!	!	!	!	!	!	!
=27	=27	=27	=27	=27	=27	=27	=27	=27	=27	=27	=27
16E-\LL	.	8.b-/L	8.gg\L	16E-\LL	po-	2e-\	tu-	(>2g\	po-	4b-\	po-
16D\	.	.	.	16D\	.	.	.	.	.	.	.
16E-\	.	.	.	16E-\	.	.	.	.	.	.	.
16F\JJ	.	16b-/Jk	16gg\Jk	16F\JJ	.	.	.	.	.	.	.
!	!	!	!	!	!	!	!	!	!	!LO:LB:g=original	!
16G\LL	.	16b-/LL	16gg\LL	16G\LL	.	.	.	.	.	16b-\LL	.
16F\	X 6	16a/	16gg\	16F\	.	.	.	.	.	16a\	.
16G\	.	16b-/	16gg\	16G\	.	.	.	.	.	16b-\	.
16A\JJ	.	16cc/JJ	16gg\JJ	16A\JJ	.	.	.	.	.	16cc\JJ	.
!	!	!	!	!	!	!	!	!	!	!LO:TX:a:t=P:problem=cezura u góry	!
8B-\L	.	8dd\L	8ff\L	8B-\	.	8d,\	-i	8f\)	-pu-	8dd,\	.
8F\J	.	8cc\J	8ff\J	16F\	-pu-	16A/	tu-	[>16f\	-li	16cc\	-pu-
!	!	!	!	!	!	!	!	!	!	!LO:TX:a:t=P:problem=cezura u góry	!
.	.	.	.	16F\	-li	16A/	-i	16f\]	.	16cc,\	-li
!	!	!LO:LB:g=original	!	!	!	!	!	!	!	!	!
8r	.	8r	8r	8r	.	8r	.	8r	.	8r	.
!	!	!	!	!LO:SIC:s=16D	!	!	!	!	!	!	!
!	!	!	!	!LO:N:vis=8	!	!	!	!	!	!	!
8D/	.	16b-/LL	16ff\LL	16D/	ho-	16d\	ho-	16f\	ho-	16b-\	ho-
!	!	!	!	!LO:SIC:s=16D	!	!	!	!	!	!	!
!	!	!	!	!LO:N:vis=8	!	!	!	!	!	!	!
.	.	16b-/JJ	16ff\JJ	16D/	-no-	16d\	-no-	16f\	-no-	16b-\	-no-
!LO:LB:g=original	!	!	!	!	!	!	!	!	!	!	!
=28	=28	=28	=28	=28	=28	=28	=28	=28	=28	=28	=28
16E-\LL	.	8b-/L	8gg\L	(>16E-\LL	-ri-	8B-\	-ri-	8g\	-ri-	8b-\	-ri-
16F\	.	.	.	16F\JJ)	.	.	.	.	.	.	.
16G\	.	16b-/L	8gg\J	(>16G\LL	-fi-	8B-\	-fi-	8g\	-fi-	(>16b-\LL	-fi-
16A\JJ	.	16cc/JJ	.	16A\JJ)	.	.	.	.	.	16cc\JJ)	.
8B-\L	.	8dd\L	8ff\L	8B-\	-cen-	8B-\	-cen-	8f\	-cen-	8dd\	-cen-
16G\L	.	16b-\L	16gg\L	16G\	-ti-	16B-\	-ti-	16g\	-ti-	16b-\	-ti-
!	!	!	!	!	!	!	!	!	!	!LO:TX:a:t=P:problem=cezura u góry i u dołu	!
16A\JJ	.	16cc\JJ	16gg\JJ	16A,\	-a	16B-\	-a	16g\	-a	16cc,\	-a
*	*	*	*	*	*	*	*	*custos:f	*	*	*
!	!	!	!	!	!	!LO:LB:g=original	!	!LO:LB:g=original	!	!	!
8B-\L	.	8dd\L	8ff\L	8B-\	po-	8B-\	po-	8f\	po-	8dd\	po-
16D\L	.	16b-\L	16gg\L	16D/	-pu-	16B-\	-pu-	16f\	-pu-	16cc\	-pu-
16E-\JJ	.	16b-\JJ	16gg\JJ	16D/	-li	16e-,\	-li	16g,\	-li	16b-,<\	-li
!	!	!	!	!LO:LB:g=original	!	!	!	!	!	!	!
!LO:TX:a:t=P:problem=mixed beam	!	!	!	!	!	!	!	!	!	!	!
8F\L	.	8b-/L	8ff\L	4F\	tu-	4c\	tu-	4f\	tu-	(>8b-\L	tu-
8FF/J	.	8a/J	8ff\J	.	.	.	.	.	.	8a\J	.
=29	=29	=29	=29	=29	=29	=29	=29	=29	=29	=29	=29
!	!	!	!	!	!	!	!	!LO:SIC:s=4f	!	!LO:TX:b:i:t=Finis	!
!	!	!	!	!LO:TX:b:i:t=Finis	!	!	!	!LO:TX:b:i:t=finis	!	!LO:TX:a:t=P:problem=fermata również pod adnotacją Finis	!
4BB-/	.	4b-/	4ff\	4BB-;>/	-i	4d;>\	-i	4g;>\	-i.	4b-;>\)	-i
!	!	!	!	!	!	!LO:TX:b:t=P:problem=fermata pod "finis"	!	!	!	!	!
!	!	!	!	!	!	!LO:TX:b:i:t=finis	!	!	!	!	!
8r	.	8r	8r	4r	.	4r;<	.	4r	.	4r	.
8BB-/	.	8dd\	8b-/	.	.	.	.	.	.	.	.
*	*	*	*custos:ff	*	*	*	*	*	*	*	*
!	!	!	!LO:LB:g=original	!	!	!	!	!	!	!	!
4BB-/	.	8dd\L	8ff\L	2r	.	2r	.	2r	.	2r	.
.	.	16cc\L	16ee-\L	.	.	.	.	.	.	.	.
.	.	16dd\JJ	16ff\JJ	.	.	.	.	.	.	.	.
4E-\	.	8ee-\L	8gg\L	.	.	.	.	.	.	.	.
.	.	16dd\L	16ff\L	.	.	.	.	.	.	.	.
.	.	16cc\JJ	16ee-\JJ	.	.	.	.	.	.	.	.
!	!	!	!	!	!	!	!	!	!	!LO:PB:g=original	!
=30	=30	=30	=30	=30	=30	=30	=30	=30	=30	=30	=30
!	!	!	!	!	!	!	!	!	!	!LO:TX:a:t=3	!
4BB-/	.	4dd\	8ff\L	00r	.	00r	.	00r	.	0r	.
.	.	.	16b-\L	.	.	.	.	.	.	.	.
.	.	.	16a\JJ	.	.	.	.	.	.	.	.
8r	.	8r	8b-\L	.	.	.	.	.	.	.	.
8F\	.	8a/	8cc\J	.	.	.	.	.	.	.	.
8BB-/L	.	8b-/L	8dd\L	.	.	.	.	.	.	.	.
8D/J	.	16a/L	16cc\L	.	.	.	.	.	.	.	.
.	.	16b-/JJ	16dd\JJ	.	.	.	.	.	.	.	.
*custos:C	*	*	*	*	*	*	*	*	*	*	*
!LO:PB:g=original	!	!	!	!	!	!	!	!	!	!	!
8C/L	.	8cc/L	8ee-\L	.	.	.	.	.	.	.	.
16D/L	.	8b-/J	8dd\J	.	.	.	.	.	.	.	.
16E-/JJ	.	.	.	.	.	.	.	.	.	.	.
!	!	!LO:LB:g=original	!	!	!	!	!	!	!	!	!
=31	=31	=31	=31	=31	=31	=31	=31	=31	=31	=31	=31
8F\L	.	8a/L	4cc\	.	.	.	.	.	.	.	.
8F\	.	8a/J	.	.	.	.	.	.	.	.	.
8F\	.	8a/L	8r	.	.	.	.	.	.	.	.
8E-\J	.	16g/L	8cc\	.	.	.	.	.	.	.	.
.	.	16a/JJ	.	.	.	.	.	.	.	.	.
!	!	!LO:TX:a:t=P:problem=mixed beam	!	!	!	!	!	!	!	!	!
4D/	.	8b-/L	16ff\LL	.	.	.	.	.	.	.	.
.	.	.	16ee-\	.	.	.	.	.	.	.	.
.	.	8ff\J	16dd\	.	.	.	.	.	.	.	.
.	.	.	16cc\JJ	.	.	.	.	.	.	.	.
8r	.	8r	16b-/LL	.	.	.	.	.	.	.	.
.	.	.	16a/	.	.	.	.	.	.	.	.
8D/	.	8b-/	16g/	.	.	.	.	.	.	.	.
.	.	.	16f/JJ	.	.	.	.	.	.	.	.
=32	=32	=32	=32	=32	=32	=32	=32	=32	=32	=32	=32
!	!	!	!LO:TX:a:t=P:problem=mixed beam	!	!	!	!	!	!	!	!
8E-\L	.	8b-\L	8g/L	.	.	.	.	.	.	1r	.
8E-\J	.	8ee-\J	8gg\J	.	.	.	.	.	.	.	.
8F\L	.	8a/L	8.ff\L	.	.	.	.	.	.	.	.
16G\L	.	16b-/L	.	.	.	.	.	.	.	.	.
16A\JJ	.	16cc/JJ	16ee-\Jk	.	.	.	.	.	.	.	.
8B-\L	.	8f/L	8dd\L	.	.	.	.	.	.	.	.
8G\J	.	8g/J	16cc\L	.	.	.	.	.	.	.	.
.	.	.	16b-\JJ	.	.	.	.	.	.	.	.
8E-\L	.	8g/L	8cc/L	.	.	.	.	.	.	.	.
8F\J	.	8c/J	8a/J	.	.	.	.	.	.	.	.
=33	=33	=33	=33	=33	=33	=33	=33	=33	=33	=33	=33
!	!	!	!LO:TX:b:t=Vertat(ur) Citiſsime.	!	!	!	!	!	!	!	!
!LO:TX:b:i:t=Finis	!	!LO:TX:i:a:t=Finis	!LO:TX:i:b:t=Finis	!	!	!	!	!	!	!	!
4BB-;;>/	.	4d;;>/	4b-;;>/	.	.	.	.	.	.	4r	.
!	!	!	!LO:PB:g=original	!	!	!	!	!	!	!	!
4r	.	8r	8r	.	.	.	.	.	.	8r	.
!	!	!	!	!	!	!	!	!	!	!LO:TX:a:t=P:problem=cezura u góry	!
.	.	8f/	8b-/	.	.	.	.	.	.	8g,/	Qui-
2rBB	.	4g/	8b-/L	.	.	.	.	.	.	8dd,<\	-a
*	*	*	*	*	*	*	*	*	*	*	*ij
.	.	.	16a/L	.	.	.	.	.	.	(>16cc\LL	qui-
.	.	.	16b-/JJ	.	.	.	.	.	.	16dd\JJ)	.
.	.	4c/	8cc/L	.	.	.	.	.	.	8ee-,<\	-a
*	*	*	*	*	*	*	*	*	*	*	*Xij
.	.	.	16b-/L	.	.	.	.	.	.	(>16dd\LL	fe-
.	.	.	16a/JJ	.	.	.	.	.	.	16cc\JJ)	.
!LO:LB:g=original	!	!	!	!	!	!	!	!	!	!	!
=34	=34	=34	=34	=34	=34	=34	=34	=34	=34	=34	=34
!LO:TX:a:t=1:P:problem=z daszkiem	!	!	!	!	!	!	!	!	!	!LO:TX:a:t=P:problem=mixed beam	!
1r	.	4g/	4b-/	1r	.	1r	.	1r	.	8dd\L	-ci-
.	.	.	.	.	.	.	.	.	.	(<16g/L	.
.	.	.	.	.	.	.	.	.	.	16f#X/JJ)	.
.	.	8r	8r	.	.	.	.	.	.	8g,</	-sti
!	!	!	!LO:TX:b:t=P:problem=krzyżyk pod nutą	!	!	!	!	!	!	!LO:TX:a:t=P:problem=cezura u góry	!
.	.	8d/	8f#X/	.	.	.	.	.	.	8a,/	fe-
.	.	8g/L	8g/L	.	.	.	.	.	.	8b-\	-ci-
.	.	8g/	16f#X/L	.	.	.	.	.	.	16a,<\	-sti
.	.	.	16g/JJ	.	.	.	.	.	.	16b-\	vi-
.	.	8f#X/	8a/L	.	.	.	.	.	.	8cc\	-ri-
.	.	8g/J	8g/J	.	.	.	.	.	.	(>16b-\LL	-li-
.	.	.	.	.	.	.	.	.	.	16a\JJ)	.
!	!	!LO:LB:g=original	!	!	!	!	!	!	!	!LO:LB:g=original	!
=35	=35	=35	=35	=35	=35	=35	=35	=35	=35	=35	=35
4r	.	4d/	4f#X/	4r	.	4r	.	4r	.	4a\	-ter
8r	.	8r	8r	8r	.	8r	.	8r	.	8r	.
!	!	!	!	!	!	!	!	!	!	!LO:TX:a:t=P:problem=cezura u góry	!
8G\L	.	8dd\	8gg\	8G\	Qui-	8G/	Qui-	8g\	Qui-	8dd,\	Qui-
8G\	.	8b-/L	8.gg\L	8G,\	-a	8d,\	-a	8g,\	-a	8b-,<\	-a
*	*	*	*	*	*ij	*	*ij	*	*	*	*ij
8G\J	.	16a/L	.	8G\	qui-	(>16c\LL	qui-	8g\	qui-	(>16a\LL	qui-
.	.	16b-/JJ	16gg\K	.	.	16d\JJ)	.	.	.	16b-\JJ)	.
8C/L	.	8cc/L	8gg\	8C,/	-a	8e-,\	-a	8g,\	-a	8cc,<\	-a
*	*	*	*	*	*Xij	*	*Xij	*	*	*	*
8C/J	.	16b-/L	8gg\J	8C/	fe-	(>16d\LL	fe-	8g\	fe-	(>16b-\LL	qui-
.	.	16a/JJ	.	.	.	16c\JJ)	.	.	.	16a\JJ)	.
!	!	!	!	!	!	!LO:PB:g=original	!	!LO:PB:g=original	!	!	!
=36	=36	=36	=36	=36	=36	=36	=36	=36	=36	=36	=36
!	!	!	!	!	!	!LO:TX:a:t=P:problem=mixed beam	!	!	!	!	!
8G\L	.	8b-/L	8gg\L	8G\	-ci-	8d\L	-ci-	8g\	-ci-	4b-\	-a
*	*	*	*	*	*	*	*	*	*	*	*Xij
8G\J	.	8b-/J	8gg\J	8G\	-sti	(<16G/L	.	8g\	-sti	.	.
.	.	.	.	.	.	16F#X/JJ)	.	.	.	.	.
!	!	!	!LO:LB:g=original	!	!	!	!	!	!	!	!
8r	.	8r	8r	8r	.	8G,/	-ſti	8r	.	8r	.
!	!	!	!	!	!	!	!	!	!	!LO:TX:a:t=P:problem=cezura u góry	!
8D\	X #	8dd\	8ff#X\	8D/	fe-	8A/	fe-	8f#X\	fe-	8dd,\	fe-
8G\L	.	8dd\L	8dd\L	8G\	-ci-	8B-\	-ci-	8d\	-ci-	8dd\	-ci-
!LO:TX:a:t=P:problem=krzyżyk nad nutą	!	!	!	!	!	!	!	!	!	!	!
16F#X\L	.	16cc\L	16aa\L	16F,\	-sti	16A,/	-sti	16a\	-sti	16dd,<\	-sti
16G\JJ	.	16dd\JJ	16gg\JJ	16G\	vi-	16B-/	vi-	16g\	vi-	16dd\	vi-
!	!	!	!	!LO:PB:g=original	!	!	!	!	!	!	!
8A\L	.	8cc\L	8een\L	8A\	-ri-	8.c\	-ri-	8en\	-ri-	8cc\	-ri-
8G\J	.	8dd\J	8gg\J	8G\	-li-	.	.	8g\	-li-	8dd\	-li-
.	.	.	.	.	.	16B-/	-li-	.	.	.	.
=37	=37	=37	=37	=37	=37	=37	=37	=37	=37	=37	=37
8D\L	.	4dd\	4ff#X\	4D/	-ter	4A/	-ter	4f#X\	-ter	4dd,<\	-ter
8En\	.	.	.	.	.	.	.	.	.	.	.
8F#X\	.	4r	4r	4r	.	4r	.	4r	.	8a\	i-
8D\J	X 6	.	.	.	.	.	.	.	.	16dd\	-de-
.	.	.	.	.	.	.	.	.	.	16dd\	-o
!	!	!	!	!	!	!	!	!	!	!LO:LB:g=original	!
8G\L	.	2r	2r	2r	.	2r	.	2r	.	8b-X\	i-
8G\J	X n	.	.	.	.	.	.	.	.	16a/	-de-
.	.	.	.	.	.	.	.	.	.	16g,</	-o
!LO:LB:g=original	!	!	!	!	!	!	!	!	!	!	!
8E/L	.	.	.	.	.	.	.	.	.	8cc\	ma-
8BBn/J	.	.	.	.	.	.	.	.	.	8dd\	-nus
=38	=38	=38	=38	=38	=38	=38	=38	=38	=38	=38	=38
!	!	!LO:TX:a:t=1	!LO:TX:a:t=1	!	!	!	!	!	!	!	!
4C/	.	1r;>	1r;	1r	.	1r	.	1r	.	8.ee-\	Do-
.	.	.	.	.	.	.	.	.	.	16dd\	-mi-
8r	.	.	.	.	.	.	.	.	.	8cc,<\	-ni
!LO:SIC:s=16c	!	!	!	!	!	!	!	!	!	!	!
16c-X\LL	.	.	.	.	.	.	.	.	.	(>16ee-\LL	con-
!	!	!	!	!	!	!	!	!	!	!LO:TX:a:t=P:problem=cezura u góry	!
16Bn\JJ	.	.	.	.	.	.	.	.	.	16dd,\JJ)	.
8c-\L	.	.	.	.	.	.	.	.	.	8ee-\	-for-
8F\J	X 6	.	.	.	.	.	.	.	.	(>16dd\LL	.
.	.	.	.	.	.	.	.	.	.	16cc\JJ)	.
8G\L	X 4	.	.	.	.	.	.	.	.	8bn\	-ta-
8A-X\J	X 7	.	.	.	.	.	.	.	.	8cc\	-bit
!	!	!LO:PB:g=original	!	!	!	!	!	!	!	!	!
=39	=39	=39	=39	=39	=39	=39	=39	=39	=39	=39	=39
4G\	.	4r	4r	4r	.	4r	.	4r	.	8dd,<\	te
.	.	.	.	.	.	.	.	.	.	8ryy	.
8G\L	X n	8dd\L	8gg\L	8G\	I-	8Bn\	i-	8g\	I-	8dd\	i-
8G\J	.	16dd\L	16gg\L	16G\	-de-	16B\	-de-	16g\	-de-	16dd\	-de-
.	.	16dd\JJ	16gg\JJ	16G,\	-o	16B\	-o	16g\	-o	16dd\	-o
*	*	*	*	*	*	*custos:c	*	*custos:g	*	*	*
!	!	!	!	!	!	!LO:LB:g=original	!	!LO:LB:g=original	!	!LO:LB:g=original	!
*	*	*	*	*	*ij	*	*	*	*	*	*
8c\L	.	8ee-\L	8gg\L	8c\	i-	8c\	i-	8g\	i-	8ee-\	i-
8c\J	.	16ee-\L	16gg\L	16c\	-de-	16c\	-de-	16g\	-de-	16ee-\	-de-
.	.	16ee-\JJ	16gg\JJ	16c\	-o	16c,\	-o	16g,\	-o	16ee-,<\	-o
*	*	*	*	*	*Xij	*	*	*	*	*	*
8F\L	.	8ff\L	8aa-X\L	8F\	ma-	8c\	ma-	8a\	ma-	8ff\	ma-
!LO:SIC:s=8B-	!	!	!	!	!	!	!	!	!	!	!
8Bn\J	.	8dd\J	8ff\J	8B-\	-nus	8B\	-nus	8f\	-nus	8dd\	-nus
*	*	*	*	*custos:E	*	*	*	*	*	*	*
!	!	!	!	!LO:LB:g=original	!	!	!	!	!	!	!
=40	=40	=40	=40	=40	=40	=40	=40	=40	=40	=40	=40
8E-\L	.	8ee-\L	8gg\L	8E-\	Do-	8B-\	Do-	8g\	Do-	8ee-\	Do-
8E-\J	.	8ee-\J	8gg\J	16E-\	-mi-	16B-\	-mi-	16g\	-mi-	16ee-\	-mi-
.	.	.	.	16E-\	-ni	16B-\	-ni	16g\	-ni	16ee-\	-ni
!LO:LB:g=original	!	!	!	!	!	!	!	!	!	!	!
8r	.	8r	8r	8r	.	8r	.	8r	.	8r	.
8E-\	.	16ee-\LL	8gg\	(>8E-\L	Con-	(>8B-\L	Con-	(>8g\L	Con-	(>16ee-\LL	Con-
!	!	!	!	!	!	!	!	!	!	!LO:TX:a:t=P:problem=cezura u góry	!
.	.	16dd\JJ	.	.	.	.	.	.	.	16dd,\JJ)	.
!	!	!	!LO:LB:g=original	!	!	!	!	!	!	!	!
8F\L	X -	8cc/L	8aa-X\L	8F\J)	.	8f\J)	.	8a\J)	.	(>8cc\	-for-
8G\J	X n	8bn/J	16gg\L	8G\	-for-	(>16e-\LL	-for-	(>16g\LL	-for-	8bn\)	.
.	.	.	16ff\JJ	.	.	16d\JJ)	.	16f\JJ)	.	.	.
4A-X\	X 7	8.cc\L	8.ee-\L	8.A-X\	-ta-	8.c\	-ta-	8e-\	-ta-	8.cc\	-ta-
.	X 6	.	.	.	.	.	.	8f\	-bit	.	.
.	.	16cc\Jk	16ff\Jk	16A-\	-bit	16c\	-bit	.	.	16cc\	-bit
=41	=41	=41	=41	=41	=41	=41	=41	=41	=41	=41	=41
4G\	.	4bn\	4gg\	4G\	te	4d\	te	4g\	te	8bn,<\	te
.	.	.	.	.	.	.	.	.	.	8g/	et
*	*	*	*	*	*	*	*	*	*	*custos:dd	*
!	!	!	!	!	!	!	!	!	!	!LO:LB:g=original	!
8r	.	4r	4r	4r	.	4r	.	4r	.	8dd\	e-
!	!	!	!	!	!	!	!	!	!	!LO:TX:a:t=P:problem=cezura u góry i u dołu	!
8GG/	.	.	.	.	.	.	.	.	.	8gg,\	-riſ
!LO:TX:a:t=P:problem=mixed beam	!	!	!	!	!	!	!	!	!	!	!
8C/L	.	2r	2r	2r	.	2r	.	2r	.	8ee-\	e-
8c\	.	.	.	.	.	.	.	.	.	(>16dd\LL	-ris
.	.	.	.	.	.	.	.	.	.	16ee-,<\JJ)	.
8A\	.	.	.	.	.	.	.	.	.	8cc\	Be-
8F\J	.	.	.	.	.	.	.	.	.	8ff\	-ne-
!	!	!	!	!	!	!LO:LB:g=original	!	!LO:LB:g=original	!	!	!
=42	=42	=42	=42	=42	=42	=42	=42	=42	=42	=42	=42
!	!	!LO:TX:a:t=1:P:problem=z daszkiem	!LO:TX:a:t=1:P:problem=z daszkiem	!	!	!	!	!LO:TX:a:t=1	!	!	!
4B-\	.	1r	1r	1r	.	1r	.	1r	.	8dd\	-di-
.	.	.	.	.	.	.	.	.	.	(>16cc\LL	-cta
.	.	.	.	.	.	.	.	.	.	16b-\JJ)	.
8r	.	.	.	.	.	.	.	.	.	8dd\	Be-
8G\	.	.	.	.	.	.	.	.	.	(>16cc\LL	-ne-
!	!	!	!	!	!	!	!	!	!	!LO:TX:a:t=P:problem=cezura u góry	!
.	.	.	.	.	.	.	.	.	.	16dd,\JJ)	.
4C/	.	.	.	.	.	.	.	.	.	8ee-\	-di-
.	.	.	.	.	.	.	.	.	.	(>16dd\LL	-cta
.	.	.	.	.	.	.	.	.	.	16cc,<\JJ)	.
8BB-/L	.	.	.	.	.	.	.	.	.	8dd,<\	in
8C/J	X 6	.	.	.	.	.	.	.	.	8g/	ae-
*	*	*	*	*	*	*	*	*	*	*custos:f	*
!	!	!LO:LB:g=original	!	!	!	!	!	!	!	!LO:LB:g=original	!
=43	=43	=43	=43	=43	=43	=43	=43	=43	=43	=43	=43
4D/	.	4r	4r	4r	.	4r	.	4r	.	8f#X/	-ter-
.	.	.	.	.	.	.	.	.	.	8d,</	-num
*custos:d	*	*	*	*	*	*	*	*	*	*	*
!LO:LB:g=original	!	!	!	!	!	!	!	!	!	!	!
8d\L	.	8dd\L	8aa\L	8d\	E-	8A/	E-	8f#X\	E-	8dd\	e-
!	!	!	!	!	!	!	!	!	!	!LO:TX:a:t=P:problem=cezura u góry i u dołu	!
8d\J	.	8dd\J	16aa\L	8d,\	-ris	8A,/	-ris	8f#,\	-ris	8dd,\	-ris
.	.	.	16aa\JJ	.	.	.	.	.	.	.	.
!LO:TX:a:t=P:problem=mixed beam	!	!	!	!	!	!	!	!	!	!	!
8d\L	.	8ff#X\L	8aa\L	8d\	e-	8A/	e-	8f#\	e-	8dd\	e-
8D/J	.	8ff#\J	8aa\J	8D/	-ris	8A/	-ris	8f#\	-ris	8dd\	-ris
!	!	!	!	!LO:LB:g=original	!	!	!	!	!	!	!
8r	.	8r	8r	8r	.	8r	.	8r	.	8r	.
8d\	.	16ff#X\LL	16aa\LL	16d\	Be-	16A/	Be-	16f#X\	Be-	16dd\	Be-
.	.	16ff#\JJ	16aa\JJ	16d\	-ne-	16A/	-ne-	16f#\	-ne-	16dd\	-ne-
=44	=44	=44	=44	=44	=44	=44	=44	=44	=44	=44	=44
!	!	!	!	!	!	!	!	!LO:SIC:s=8f#	!	!	!
8d\L	.	8ff#X\L	8aa\L	8d\	-di-	8A/	-di-	8f\	-di-	8dd\	-di-
8G\J	.	8dd\J	8bb-\J	8G\	-cta	8B-\	-cta	8g\	-cta	8dd\	-cta
8r	.	8r	8r	8r	.	8r	.	8r	.	8r	.
8G\	.	16dd\LL	16gg\LL	16G\	be-	16B-\	be-	16g\	be-	16dd\	be-
.	.	16dd\JJ	16gg\JJ	16G\	-ne-	16B-\	-ne-	16g\	-ne-	16dd\	-ne-
8c\L	.	8ee-\L	8gg\L	8c\	-di-	8G/	-di-	8g\	-di-	8ee-X\	-di-
8B-\	.	8dd\	8gg\J	8B-,\	-cta	8B-\	-cta	8g\	-cta	8dd,<\	-cta
*	*	*	*	*	*	*custos:c	*	*custos:g	*	*	*
!	!	!	!LO:LB:g=original	!	!	!LO:LB:g=original	!	!LO:LB:g=original	!	!	!
8A\	.	8cc\	8aa\L	8A\	in	8c\	in	8a\	in	8cc\	in
8G\J	.	8b-\J	8dd\J	8G\	ae-	8d\	ae-	8d\	ae-	8b-\	ae-
!	!	!	!	!	!	!	!	!	!	!LO:LB:g=original	!
=45	=45	=45	=45	=45	=45	=45	=45	=45	=45	=45	=45
8D/L	.	8a/L	8ff#X\L	8D/	-ter-	8d\	-ter-	8f#X\	-ter-	8a\	-ter-
8D/J	.	8a/	8ff#\J	8D/	-num	8d\	-num	8f#\	-num	8a,<\	-num
4r	.	8d/	8b-/L	4r	.	4r	.	4r	.	8dd\	e-
.	.	8d/J	8b-/J	.	.	.	.	.	.	8dd,<\	-ris
2D/	.	8d/L	8f#X/L	2r	.	2r	.	2r	.	8a\	e-
.	.	8d/	8f#/J	.	.	.	.	.	.	8a,<\	-ris
.	.	8d/	8dd\L	.	.	.	.	.	.	8b-\	be-
.	.	8d/J	8dd\J	.	.	.	.	.	.	8b-\	-ne-
!	!	!LO:LB:g=original	!	!	!	!	!	!	!	!	!
=46	=46	=46	=46	=46	=46	=46	=46	=46	=46	=46	=46
!	!	!	!	!LO:TX:a:t=1	!	!	!	!LO:TX:a:t=1	!	!	!
8r	.	8d/L	8a/L	1r	.	1r	.	1r	.	8f#X/	-di-
8D/L	X 7	8d/J	8a/J	.	.	.	.	.	.	(<16en/LL	-cta
.	.	.	.	.	.	.	.	.	.	16d,</JJ)	.
8BB-/	X 6	4r	4r	.	.	.	.	.	.	8g/	Be-
8GG/J	.	.	.	.	.	.	.	.	.	(>16a\LL	-ne-
!	!	!	!	!	!	!	!	!	!	!LO:TX:a:t=P:problem=cezura u góry	!
.	.	.	.	.	.	.	.	.	.	16b-,\JJ)	.
*custos:A	*	*	*	*	*	*	*	*	*	*	*
!LO:LB:g=original	!	!	!	!	!	!	!	!	!	!	!
8A\L	.	2rg	2r	.	.	.	.	.	.	4.cc\	-di-
8G\	.	.	.	.	.	.	.	.	.	.	.
8A\	.	.	.	.	.	.	.	.	.	.	.
8F#X\J	.	.	.	.	.	.	.	.	.	(>16dd\LL	-cta
.	.	.	.	.	.	.	.	.	.	16ee-\JJ)	.
*	*	*	*	*	*	*	*	*	*	*custos:dd	*
!	!	!	!	!LO:LB:g=original	!	!	!	!	!	!LO:LB:g=original	!
=47	=47	=47	=47	=47	=47	=47	=47	=47	=47	=47	=47
!LO:TX:a:t=P:problem=mixed beam	!	!	!	!	!	!	!	!	!	!	!
8G\L	.	2rg	2r	2r	.	2r	.	2r	.	8dd\	in
8C/	.	.	.	.	.	.	.	.	.	(16cc\LL	ae-
.	.	.	.	.	.	.	.	.	.	16b-\JJ)	.
!	!	!	!	!	!	!	!	!	!	!LO:TX:a:t=P:problem=cezura u góry	!
8D/	X 7	.	.	.	.	.	.	.	.	4a,\	-ter-
8DD/J	.	.	.	.	.	.	.	.	.	.	.
4GG/	.	4r	4r	4r	.	4r	.	4r	.	8g/	-num
.	.	.	.	.	.	.	.	.	.	8r	.
8G\L	.	8dd\L	8gg\L	8G\	E-	8Bn\	E-	8g\	e-	8dd\	e-
8G\J	.	8dd\J	8gg\J	8G\	-ris	8B\	-ris	8g\	-ris	8dd\	-ris
=48	=48	=48	=48	=48	=48	=48	=48	=48	=48	=48	=48
!LO:TX:a:t=P:problem=mixed beam	!	!	!	!	!	!LO:SIC:s=8Bn	!	!	!	!	!
8G\L	.	8dd\L	8gg\L	8G\	e-	8B-\	e-	8g\	e-	8dd\	e-
8GG/J	.	8dd\J	8gg\J	8GG/	-ris	8B-\	-ris	8g,\	-ris	8dd\	-ris
!	!	!	!LO:LB:g=original	!	!	!	!	!	!	!	!
8r	.	8r	8r	8r	.	8r	.	8g\	Be-	8r	.
!LO:TX:a:t=P:problem=mixed beam	!	!	!	!	!	!	!	!	!	!	!
8G\L	.	16dd\LL	16gg\LL	16G\	Be-	16Bn\	be-	8g\	-ne-	16dd\	be-
!	!	!	!	!	!	!	!	!	!	!LO:TX:a:t=P:problem=cezura u góry	!
.	.	16dd\JJ	16gg\JJ	16G\	-ne-	16B\	-ne-	.	.	16dd,\	-ne-
*	*	*	*	*	*	*custos:B	*	*custos:g	*	*	*
!	!	!	!	!	!	!LO:LB:g=original	!	!LO:LB:g=original	!	!	!
8G\	.	8dd\L	8gg\L	8G\	-di-	8B\	-di-	8g\	-di-	8dd\	-di-
8GG/J	.	8ee-\	8gg\	8C,/	-cta	8c,\	-cta	8g\	-cta	8ee-,<\	-cta
*	*	*	*	*	*	*	*	*	*ij	*	*
8c\L	.	8ee-\	8gg\	8c\	e-	8B\	be-	8g\	be-	8ee-\	in
8c\J	.	8ee-\J	8gg\J	8c\	-ris	8B\	-ne-	8g\	-ne-	8ee-\	ae-
!	!	!	!	!	!	!	!	!	!	!LO:LB:g=original	!
=49	=49	=49	=49	=49	=49	=49	=49	=49	=49	=49	=49
!LO:TX:a:t=P:problem=mixed beam	!	!	!	!	!	!	!	!	!	!	!
8c\L	.	8ee-\L	8gg\L	8c\	e-	8c\	-di-	8g\	-di-	8ee-\	-ter-
8C/J	.	8ee-\J	8gg\J	8C/	-ris	8c\	-cta	8g\	-cta	8ee-\	-num
*	*	*	*	*	*	*	*	*	*Xij	*	*
8r	.	8r	8r	8r	.	8r	.	8r	.	8r	.
8c\	.	16ee-\LL	16gg\LL	16c\	be-	16c\	be-	16g\	in	16ee-\	be-
!	!	!-	!	!	!	!	!	!	!	!LO:TX:a:t=P:problem=cezura u góry	!
.	.	16ee-\JJ	16ff\JJ	16c\	-ne-	16c\	-ne-	16g\	ae-	16ee-,\	-ne-
*custos:c	*	*custos:ee	*	*	*	*	*	*	*	*	*
!LO:LB:g=original	!	!LO:LB:g=original	!	!LO:LB:g=original	!	!	!	!	!	!	!
8c\L	.	8ee-\L	8gg\L	8c\	-di-	8c\	-di-	8g\	-ter-	8ee-\	-di-
8F#X\J	.	8dd\J	8aa\J	8F#X\	-cta	8d\	-cta	8a\	-num	8dd\	-cta
8r	.	8r	8r	8r	.	8r	.	8r	.	8r	.
8D/	.	16dd\LL	16aa\LL	16D/	be-	16A/	be-	16f#X\	be-	16dd\	be-
.	.	16dd\JJ	16aa\JJ	16D/	-ne-	16A/	-ne-	16f#\	-ne-	16dd\	-ne-
*	*	*	*	*	*	*	*	*custos:g	*	*	*
!	!	!	!	!	!	!LO:LB:g=original	!	!LO:LB:g=original	!	!	!
=50	=50	=50	=50	=50	=50	=50	=50	=50	=50	=50	=50
8G\L	.	8b-/L	8gg\L	8G\	-di-	8B-\	-di-	8g\	-di-	8ee-\	-di-
8A\	.	8cc/	16ff\L	8A,\	-cta	8c,\	-cta	(>16f\LL	-cta	8cc,<\	-cta
!	!	!	!LO:SIC:s=16een	!	!	!	!	!	!	!	!
.	.	.	16ee-\JJ	.	.	.	.	16en,\JJ)	.	.	.
8B-\	X 6	8dd/	8dd\L	8B-\	in	8B-\	in	8d\	in	8dd\	in
8G#X\J	X #	8dd/J	8gg\J	8G\	ae-	8B-\	ae-	8g\	ae-	8cc#X\	ae-
!	!	!	!LO:SIC:s=16een	!	!	!	!	!	!	!	!
!	!	!	!LO:TX:a:t=P:problem=mixed beam	!	!	!	!	!	!	!	!
4A\	X #	4cc#X\	16ee-\LL	2A\	-ter-	8A/	-ter-	8en\	-ter-	8cc#\	-ter-
.	.	.	16a/	.	.	.	.	.	.	.	.
.	.	.	16a/	.	.	8A/	-num	8e\	-num	8cc#\	-num
.	.	.	16a/JJ	.	.	.	.	.	.	.	.
!	!	!	!LO:LB:g=original	!	!	!	!	!	!	!	!
4r	.	16r	8a/L	.	.	8r	.	8r	.	4r	.
.	.	16a/LL	.	.	.	.	.	.	.	.	.
.	.	16a/	8A/J	.	.	16c#X\	be-	16en\	be-	.	.
.	.	16a/JJ	.	.	.	16c#\	-ne-	16e\	-ne-	.	.
!	!	!	!	!	!	!	!	!	!	!LO:LB:g=original	!
=51	=51	=51	=51	=51	=51	=51	=51	=51	=51	=51	=51
2AA/	.	8a/L	16r	2A\	.	8d\	-di-	8f\	-di-	2r	.
.	.	.	16a/LL	.	.	.	.	.	.	.	.
.	.	8A/J	16a/	.	.	8en,\	-cta	8g,\	-cta	.	.
.	.	.	16a/JJ	.	.	.	.	.	.	.	.
.	.	16r	8a/L	.	.	8f\	in	8a\	in	.	.
.	.	16a/LL	.	.	.	.	.	.	.	.	.
.	.	16a/	8A/J	.	.	(16en\LL	ae-	(16g\LL	ae-	.	.
.	.	16a/JJ	.	.	.	16d\JJ)	.	16f\JJ)	.	.	.
*	*	*	*	*	*	*custos:c	*	*custos:e	*	*	*
!	!	!	!	!	!	!LO:LB:g=original	!	!LO:LB:g=original	!	!	!
!	!	!	!	!LO:TX:a:t=P:problem=mixed beam	!	!	!	!	!	!	!
8A\L	X #	8a/L	8een\L	8A\L	.	(>8c#X\	-ter-	(>8en\L	-ter-	8a\	in
8D\J	.	8a/J	8ff\J	8D/J	.	4d\	.	8f\J)	.	8a\	ae-
!	!	!	!	!LO:SIC:s=4AA	!	!	!	!	!	!	!
4AA/	X #	4a/	4ee\	4C/	.	.	.	4e\	-num	4a\	-ter-
.	.	.	.	.	.	8c#X\)	-num	.	.	.	.
*	*	*custos:a	*	*	*	*	*	*	*	*	*
!	!	!LO:LB:g=original	!	!	!	!	!	!	!	!	!
=52	=52	=52	=52	=52	=52	=52	=52	=52	=52	=52	=52
4D/	.	4a/	4dd\	4D/	-num	4d,\	.	4f,\	.	4a,<\	-num
*	*	*	*	*custos:d	*	*	*	*	*	*	*
!	!	!	!	!LO:LB:g=original	!	!	!	!	!	!	!
8d\L	.	8ff\L	8aa\L	8d\	in	8A/	in	8a\	in	8ff\	e-
8c#X\J	X 6	8een\J	8aa\	8c#X\	ae-	8c#X\	ae-	8a\	ae-	8een,<\	-ris
*custos:d	*	*	*	*	*	*	*	*	*	*	*
!LO:LB:g=original	!	!	!	!	!	!	!	!	!	!	!
8d\L	.	8ff\L	8aa\	8d\	-ter-	8A/	-ter-	8a\	-ter-	8ff\	e-
8A\J	X #	8een\J	8aa\J	8A\	-num	8c#X\	-num	8a\	-num	8een\	-ris
8r	.	8r	8r	8r	.	8r	.	8r	.	8r	.
8A\	X #	16ee\LL	16aa\LL	16A\	be-	16c#X\	be-	16a\	be-	16ee\	be-
.	.	16ee\JJ	16aa\JJ	16A\	-ne-	16c#\	-ne-	16a\	-ne-	16ee\	-ne-
=53	=53	=53	=53	=53	=53	=53	=53	=53	=53	=53	=53
8d\L	.	8ff\L	8aa\L	8d\	-di-	8A/	-di-	8a\	-di-	8ff\	-di-
8A\J	X #	8een\J	8aa\J	8A\	-cta	8c#X\	-cta	8a\	-cta	8een\	-cta
!	!	!	!LO:LB:g=original	!	!	!LO:LB:g=original	!	!	!	!LO:LB:g=original	!
8r	.	8r	8r	8r	.	8r	.	8r	.	8r	.
!	!	!	!	!	!	!	!	!	!	!LO:SIC:s=16ff	!
8F\	.	16ff\LL	16aa\LL	16F\	be-	16d\	Be-	16a\	be-	16ee\	be-
!	!	!	!	!	!	!	!	!	!	!LO:SIC:s=16een	!
!	!	!	!	!	!	!	!	!	!	!LO:TX:a:t=P:problem=cezura u góry	!
.	.	16ee\JJ	16aa\JJ	16F\	-ne-	16d\	-ne-	16a\	-ne-	16dd,\	-ne-
!	!	!	!	!	!	!	!	!LO:LB:g=original	!	!	!
8G\L	.	8dd\L	8gg\L	8G\	-di-	8B-\	-di-	8g\	-di-	8dd\	-di-
8A\	.	8cc\	16ff\L	8A\	-cta	8B-,\	-cta	(>16f\LL	-cta	8cc,<\	-cta
.	.	.	16een\JJ	.	.	.	.	16en,\JJ)	.	.	.
*	*	*	*	*custos:B	*	*	*	*	*	*	*
!	!	!	!	!LO:LB:g=original	!	!	!	!	!	!	!
8B-\	.	8dd\	8dd\L	8B-\	in	8B-,\	in	8d\	in	8dd\	in
8G\J	.	8dd\J	8gg\J	8G\	ae-	8B-\	ae-	8f\	ae-	8dd\	ae-
=54	=54	=54	=54	=54	=54	=54	=54	=54	=54	=54	=54
8A\L	X #	8cc#X\L	8gg\L	(>8A\L	-ter-	2A/	-ter-	(>8en\L	-ter-	8cc#X\	-ter-
8d\J	.	8dd\J	8ff\J	(>8d\J)	.	.	.	(>8f\J)	.	(>4dd\	.
!LO:TX:a:t=P:problem=mixed beam	!	!	!	!	!	!	!	!	!	!	!
8A\L	.	4cc#X\	4een\	4A\)	.	.	.	4e\)	-num	.	.
!	!	!	!	!	!	!	!	!	!	!LO:TX:a:t=P:problem=cezura u góry	!
8AA/J	.	.	.	.	.	.	.	.	.	8cc#X,\)	.
!	!	!LO:TX:a:t=P:problem=kreska kończąca repetycję	!	!	!	!	!	!LO:TX:a:t=P:problem=kreska kończąca repetycję	!	!	!
4.D/	.	4.dd\	4.dd\	4.D/	-num.	4.A/	-num.	4.f#X\	.	4dd\	-num.
!LO:TX:b:i:t=Da Capo ad Signum Finis	!	!LO:TX:i:b:t=Da Capo ad Signum Finis	!LO:TX:i:b:t=Da Capo ad Signum Finis.	!LO:TX:b:i:t=Da Capo ad Signum\nFinis	!	!LO:TX:b:i:t=Da Capo ad\nSignum\nFinis	!	!LO:TX:b:i:t=Da Capo ad Signu(m)\nFinis.	!	!LO:TX:b:i:t=Da Capo\nad Signum\nFinis	!
!LO:TX:a:t=P:problem=napis na pięciolinii poniżej	!	!LO:TX:a:t=P:problem=napis na pięciolinii poniżej	!LO:TX:a:t=P:problem=napis na pięciolinii poniżej	!LO:TX:a:t=P:problem=napis na pięciolinii poniżej. Pod "Finis" fermata	!	!	!	!LO:TX:a:t=P:problem=pod "Finis" fermata	!	!LO:TX:a:t=P:problem=napis na pięciolinii	!
!	!	!	!	!	!	!	!	!	!	!LO:N:vis=4	!
.	.	.	.	.	.	.	.	.	.	8r	.
==	==	==	==	==	==	==	==	==	==	==	==
*-	*-	*-	*-	*-	*-	*-	*-	*-	*-	*-	*-
!!!system-decoration: [(s1,s2,s3,s4)][(s5,s6)][(s7)]
!!!RDF**kern: > = above
!!!RDF**kern: < = below
!!!EED: Mateusz Mrugas
!!!EEV: 2020-11-21
!!!ENC: Kamil Watkowski
!!!END: 2020-05-27
!!!YEC: Copyright 2022 Narodowy Instytut Fryderyka Chopina (https://polishscores.org)
!!!YEM: License CC-BY-4.0 (https://creativecommons.org/licenses/by/4.0)
